packages/katcn/src/icons/svg/searchFile-solid.svg

<svg width="24" height="25" viewBox="0 0 24 25" fill="none" xmlns="http://www.w3.org/2000/svg">
<path d="M18.8718 7.48809L14.7692 3.38809C14.1538 2.68809 13.2308 2.28809 12.3077 2.28809H6.66667C5.23077 2.28809 4 3.48809 4 4.98809V19.6881C4 21.0881 5.23077 22.2881 6.66667 22.2881H17.3333C18.7692 22.2881 20 21.0881 20 19.5881V11.1881V9.98809C20 8.98809 19.5897 8.08809 18.8718 7.48809Z" fill="black"/>
<path d="M15.5 17.2881L14.4 16.1881C14.7 15.6881 14.8 15.1881 14.8 14.5881C14.8 13.6881 14.4 12.7881 13.8 12.1881C12.5 10.9881 10.3 10.9881 9 12.2881C8.4 12.8881 8 13.7881 8 14.6881C8 15.5881 8.4 16.4881 9 17.0881C9.6 17.6881 10.5 18.0881 11.4 18.0881C12 18.0881 12.5 17.9881 13 17.6881L14.1 18.7881C14.3 18.9881 14.6 19.0881 14.8 19.0881C15 19.0881 15.3 18.9881 15.5 18.7881C15.9 18.3881 15.9 17.6881 15.5 17.2881ZM10.4 15.6881C9.9 15.1881 9.9 14.2881 10.4 13.6881C10.7 13.3881 11 13.2881 11.4 13.2881C11.8 13.2881 12.1 13.3881 12.4 13.6881C12.9 14.1881 12.9 15.0881 12.4 15.6881C11.8 16.1881 11 16.1881 10.4 15.6881Z" fill="white"/>
</svg>

<svg xmlns="http://www.w3.org/2000/svg" fill="none" viewBox="0 0 24 25"><path fill="#000" d="m18.872 7.488-4.103-4.1a3.3 3.3 0 0 0-2.461-1.1H6.667C5.23 2.288 4 3.488 4 4.988v14.7c0 1.4 1.23 2.6 2.667 2.6h10.666c1.436 0 2.667-1.2 2.667-2.7v-9.6c0-1-.41-1.9-1.128-2.5"/><path fill="#fff" d="m15.5 17.288-1.1-1.1c.3-.5.4-1 .4-1.6 0-.9-.4-1.8-1-2.4-1.3-1.2-3.5-1.2-4.8.1-.6.6-1 1.5-1 2.4s.4 1.8 1 2.4 1.5 1 2.4 1c.6 0 1.1-.1 1.6-.4l1.1 1.1c.2.2.5.3.7.3s.5-.1.7-.3c.4-.4.4-1.1 0-1.5m-5.1-1.6c-.5-.5-.5-1.4 0-2 .3-.3.6-.4 1-.4s.7.1 1 .4c.5.5.5 1.4 0 2-.6.5-1.4.5-2 0"/></svg>
